icons/svg/transfer.svg

<svg xmlns="http://www.w3.org/2000/svg" version="1.1" baseProfile="full" width="24" height="24" viewBox="0 0 24.00 24.00" xml:space="preserve"><path fill="#000" fill-opacity="1" stroke-width=".2" stroke-linejoin="round" d="M3 8h2v8H3V8zm4 0h2v8H7V8zm4 0h2v8h-2V8zm4 11.25V4.75L22.25 12 15 19.25z"/></svg>

﻿<?xml version="1.0" encoding="utf-8"?>
<!DOCTYPE svg PUBLIC "-//W3C//DTD SVG 1.1//EN" "http://www.w3.org/Graphics/SVG/1.1/DTD/svg11.dtd">
<svg xmlns="http://www.w3.org/2000/svg" xmlns:xlink="http://www.w3.org/1999/xlink" version="1.1" baseProfile="full" width="24" height="24" viewBox="0 0 24.00 24.00" enable-background="new 0 0 24.00 24.00" xml:space="preserve">
	<path fill="#000000" fill-opacity="1" stroke-width="0.2" stroke-linejoin="round" d="M 3,8L 5,8L 5,16L 3,16L 3,8 Z M 7,8L 9,8L 9,16L 7,16L 7,8 Z M 11,8L 13,8L 13,16L 11,16L 11,8 Z M 15,19.25L 15,4.75L 22.25,12L 15,19.25 Z "/>
</svg>
